X: 4347
T: WAR CHORUS. (Norma.)
R: air, march
%R: air, march
B: James Kerr "Merry Melodies" v.4 p.37 #347
Z: 2016 John Chambers <jc:trillian.mit.edu>
M: 2/4
L: 1/16
K: Am	% and C
|:!f!\
(^d4 e2)z2 | (^d4 e2)e2 |\
f4 e2d2 | (e4 d2)z2 |\
c2cc (.c2.d2) | e2ee (.e2.e2) |\
[1 f2e2d2c2 | B2BB B2B2 :|\
[2 g2f2e2d2 | cEFG ABcd |:\
e2ee (.e2.e2) | g4 d4 |\
c2cc (.c2.c2) | e4 B4 |\
f4 e2d2 | d4 c2B2 |\
c4 B4 | A4 z4 :|

%%sep 1 1 500
%%sep 1 1 500

